static/images/immudb/runs-on/nodejs.svg

<svg width="150" height="92" viewBox="0 0 150 92" fill="none" xmlns="http://www.w3.org/2000/svg">
<path d="M74.1864 91.8675C73.6877 91.8675 73.189 91.7208 72.749 91.4862L68.2315 88.8168C67.5568 88.4354 67.8795 88.3181 68.0848 88.2301C68.9942 87.9367 69.1702 87.8487 70.1089 87.3207C70.1969 87.262 70.3436 87.2914 70.4609 87.35L73.9223 89.4328C74.069 89.4914 74.2157 89.4914 74.333 89.4328L87.8561 81.6005C88.0028 81.5419 88.0615 81.3952 88.0615 81.2192V65.584C88.0615 65.408 88.0028 65.2907 87.8561 65.2027L74.333 57.3998C74.1864 57.3411 74.0397 57.3411 73.9223 57.3998L60.4286 65.232C60.2819 65.2907 60.2232 65.4667 60.2232 65.6134V81.2485C60.2232 81.3952 60.2819 81.5419 60.4286 81.6299L64.1247 83.7713C66.1194 84.798 67.3808 83.5953 67.3808 82.4219V66.9921C67.3808 66.7867 67.5568 66.5814 67.7915 66.5814H69.5222C69.7275 66.5814 69.9329 66.7574 69.9329 66.9921V82.4219C69.9329 85.0913 68.4662 86.646 65.9434 86.646C65.1514 86.646 64.5647 86.646 62.834 85.7953L59.2845 83.7713C58.4045 83.2726 57.8472 82.3046 57.8472 81.3072V65.672C57.8472 64.6453 58.3752 63.7066 59.2845 63.2079L72.8076 55.3757C73.6583 54.9063 74.8024 54.9063 75.6531 55.3757L89.1762 63.2079C90.0562 63.7066 90.6135 64.6747 90.6135 65.672V81.3072C90.6135 82.3339 90.0855 83.2726 89.1762 83.7713L75.6531 91.6035C75.1544 91.7502 74.6557 91.8675 74.1864 91.8675ZM78.3518 81.1312C72.4263 81.1312 71.1943 78.4324 71.1943 76.115C71.1943 75.9097 71.3703 75.7043 71.6049 75.7043H73.365C73.5703 75.7043 73.7463 75.851 73.7463 76.0564C74.0104 77.8457 74.8024 78.7258 78.3812 78.7258C81.2266 78.7258 82.4586 78.0804 82.4586 76.555C82.4586 75.675 82.1066 75.0296 77.6771 74.5896C73.981 74.2083 71.6636 73.4163 71.6636 70.4535C71.6636 67.6961 73.981 66.0827 77.8238 66.0827C82.1653 66.0827 84.3067 67.5787 84.5707 70.8348C84.5707 70.9229 84.5414 71.0402 84.4827 71.1282C84.424 71.1869 84.3067 71.2749 84.2187 71.2749H82.4586C82.2826 71.2749 82.1066 71.1282 82.0773 70.9815C81.6666 69.1041 80.6106 68.5174 77.8531 68.5174C74.7437 68.5174 74.3624 69.6028 74.3624 70.4242C74.3624 71.4215 74.8024 71.7149 78.9972 72.2429C83.1626 72.7709 85.128 73.5629 85.128 76.467C85.0987 79.4298 82.664 81.1312 78.3518 81.1312Z" fill="#539E43"/>
<path d="M32.209 30.735C32.209 30.119 31.857 29.5617 31.329 29.239L16.9552 20.9667C16.7205 20.8201 16.4565 20.7614 16.1632 20.7321H16.0165C15.7525 20.7321 15.4885 20.8201 15.2245 20.9667L0.880028 29.239C0.352011 29.5323 0 30.119 0 30.735L0.0293343 52.9704C0.0293343 53.2638 0.20534 53.5864 0.469348 53.7038C0.733357 53.8798 1.08537 53.8798 1.32004 53.7038L9.85631 48.8343C10.3843 48.5409 10.7363 47.9543 10.7363 47.3382V36.9246C10.7363 36.3086 11.0884 35.7512 11.6164 35.4285L15.2538 33.3165C15.5178 33.1405 15.8405 33.0818 16.1338 33.0818C16.4272 33.0818 16.7499 33.1405 16.9845 33.3165L20.622 35.4285C21.15 35.7219 21.502 36.3086 21.502 36.9246V47.3382C21.502 47.9543 21.854 48.5116 22.382 48.8343L30.9183 53.7038C31.1823 53.8798 31.5343 53.8798 31.7983 53.7038C32.0624 53.5571 32.2384 53.2638 32.2384 52.9704L32.209 30.735Z" fill="#333333"/>
<path d="M101.291 0.110004C101.027 -0.0366678 100.675 -0.0366678 100.441 0.110004C100.176 0.286009 100 0.550018 100 0.84336V22.9027C100 23.1081 99.9125 23.3134 99.7072 23.4307C99.5018 23.5187 99.2965 23.5187 99.0911 23.4307L95.483 21.348C94.955 21.0547 94.3096 21.0547 93.7523 21.348L79.3785 29.6496C78.8505 29.943 78.4985 30.5296 78.4985 31.1457V47.7195C78.4985 48.3355 78.8505 48.8929 79.3785 49.2156L93.7523 57.5172C94.2803 57.8105 94.9257 57.8105 95.483 57.5172L109.857 49.2156C110.385 48.9222 110.737 48.3355 110.737 47.7195V6.41687C110.737 5.77152 110.385 5.18483 109.857 4.89149L101.291 0.110004ZM99.9712 42.2927C99.9712 42.4687 99.9125 42.586 99.7658 42.674L94.8377 45.5195C94.691 45.5781 94.5443 45.5781 94.3976 45.5195L89.4695 42.674C89.3228 42.6154 89.2641 42.4394 89.2641 42.2927V36.6018C89.2641 36.4258 89.3228 36.3085 89.4695 36.2205L94.3976 33.3751C94.5443 33.3164 94.691 33.3164 94.8377 33.3751L99.7658 36.2205C99.9125 36.2792 99.9712 36.4552 99.9712 36.6018V42.2927Z" fill="#333333"/>
<path d="M149.149 36.4556C149.677 36.1622 150 35.5755 150 34.9595V30.9407C150 30.3247 149.648 29.7673 149.149 29.4447L134.864 21.1724C134.335 20.8791 133.69 20.8791 133.133 21.1724L118.759 29.474C118.231 29.7673 117.879 30.354 117.879 30.97V47.5439C117.879 48.1599 118.231 48.7173 118.759 49.04L133.045 57.1655C133.573 57.4589 134.218 57.4589 134.746 57.1655L143.4 52.3547C143.664 52.2081 143.84 51.9147 143.84 51.6214C143.84 51.328 143.664 51.0053 143.4 50.888L128.938 42.5571C128.674 42.4104 128.498 42.1171 128.498 41.8237V36.6316C128.498 36.3382 128.674 36.0155 128.938 35.8982L133.455 33.3168C133.719 33.1408 134.071 33.1408 134.335 33.3168L138.853 35.8982C139.117 36.0742 139.293 36.3382 139.293 36.6316V40.709C139.293 41.0024 139.469 41.325 139.733 41.4424C139.997 41.6184 140.349 41.6184 140.613 41.4424L149.149 36.4556Z" fill="#333333"/>
<path d="M133.778 35.6928C133.866 35.6341 134.013 35.6341 134.13 35.6928L136.888 37.2769C136.976 37.3355 137.064 37.4529 137.064 37.5702V40.7676C137.064 40.9143 137.005 41.0023 136.888 41.061L134.13 42.645C134.042 42.7037 133.895 42.7037 133.778 42.645L131.021 41.061C130.933 41.0023 130.845 40.885 130.845 40.7676V37.5995C130.845 37.4529 130.903 37.3649 131.021 37.3062L133.778 35.6928Z" fill="#539E43"/>
<path d="M56.2537 21.231C55.7257 20.9377 55.0803 20.9377 54.523 21.231L40.2372 29.4739C39.7092 29.7673 39.3865 30.354 39.3865 30.97V47.4852C39.3865 48.1012 39.7385 48.6585 40.2372 48.9812L54.523 57.2241C55.051 57.5175 55.6963 57.5175 56.2537 57.2241L70.5395 48.9812C71.0675 48.6879 71.3902 48.1012 71.3902 47.4852V30.97C71.3902 30.354 71.0381 29.7966 70.5395 29.4739L56.2537 21.231Z" fill="url(#paint0_linear)"/>
<mask id="mask0" mask-type="alpha" maskUnits="userSpaceOnUse" x="39" y="21" width="33" height="37">
<path d="M56.2537 21.231C55.7257 20.9377 55.0803 20.9377 54.523 21.231L40.2372 29.4739C39.7092 29.7673 39.3865 30.354 39.3865 30.97V47.4852C39.3865 48.1012 39.7385 48.6585 40.2372 48.9812L54.523 57.2241C55.051 57.5175 55.6963 57.5175 56.2537 57.2241L70.5395 48.9812C71.0675 48.6879 71.3902 48.1012 71.3902 47.4852V30.97C71.3902 30.354 71.0381 29.7966 70.5395 29.4739L56.2537 21.231Z" fill="white"/>
</mask>
<g mask="url(#mask0)">
<path d="M70.5394 29.474L56.2243 21.2311C56.0776 21.1724 55.931 21.0844 55.7843 21.0551L39.7091 48.5999C39.8558 48.7759 40.0024 48.8933 40.1785 49.0106L54.5229 57.2535C54.9336 57.4882 55.4029 57.5469 55.843 57.4295L70.9208 29.826C70.8328 29.6793 70.6861 29.5913 70.5394 29.474Z" fill="url(#paint1_linear)"/>
</g>
<mask id="mask1" mask-type="alpha" maskUnits="userSpaceOnUse" x="39" y="21" width="33" height="37">
<path d="M56.2537 21.231C55.7257 20.9377 55.0803 20.9377 54.523 21.231L40.2372 29.4739C39.7092 29.7673 39.3865 30.354 39.3865 30.97V47.4852C39.3865 48.1012 39.7385 48.6585 40.2372 48.9812L54.523 57.2241C55.051 57.5175 55.6963 57.5175 56.2537 57.2241L70.5395 48.9812C71.0675 48.6879 71.3902 48.1012 71.3902 47.4852V30.97C71.3902 30.354 71.0381 29.7966 70.5395 29.4739L56.2537 21.231Z" fill="white"/>
</mask>
<g mask="url(#mask1)">
<path fill-rule="evenodd" clip-rule="evenodd" d="M70.5981 48.9677C71.0088 48.7331 71.3021 48.3224 71.4488 47.8824L55.6963 21.0415C55.2856 20.9828 54.8456 21.0122 54.4642 21.2469L40.2371 29.4604L55.6083 57.4747C55.8136 57.4453 56.0483 57.3867 56.2536 57.2693L70.5981 48.9677Z" fill="url(#paint2_linear)"/>
<path fill-rule="evenodd" clip-rule="evenodd" d="M70.598 48.9677L56.2829 57.2107C56.0776 57.2987 55.8722 57.3867 55.6376 57.416L55.9016 57.9147L71.7714 48.7331V48.5277L71.3607 47.853C71.3021 48.3224 70.9794 48.7331 70.598 48.9677Z" fill="url(#paint3_linear)"/>
<path fill-rule="evenodd" clip-rule="evenodd" d="M70.598 48.9677L56.2829 57.2107C56.0776 57.2987 55.8722 57.3867 55.6376 57.416L55.9016 57.9147L71.7714 48.7331V48.5277L71.3607 47.853C71.3021 48.3224 70.9794 48.7331 70.598 48.9677Z" fill="url(#paint4_linear)"/>
</g>
<defs>
<linearGradient id="paint0_linear" x1="61.1882" y1="27.3822" x2="45.5447" y2="51.9658" gradientUnits="userSpaceOnUse">
<stop stop-color="#41873F"/>
<stop offset="0.3288" stop-color="#418B3D"/>
<stop offset="0.6352" stop-color="#419637"/>
<stop offset="0.9319" stop-color="#3FA92D"/>
<stop offset="1" stop-color="#3FAE2A"/>
</linearGradient>
<linearGradient id="paint1_linear" x1="53.211" y1="41.1631" x2="92.3933" y2="19.8742" gradientUnits="userSpaceOnUse">
<stop offset="0.1376" stop-color="#41873F"/>
<stop offset="0.4032" stop-color="#54A044"/>
<stop offset="0.7136" stop-color="#66B848"/>
<stop offset="0.9081" stop-color="#6CC04A"/>
</linearGradient>
<linearGradient id="paint2_linear" x1="38.8727" y1="39.2342" x2="71.9008" y2="39.2342" gradientUnits="userSpaceOnUse">
<stop offset="0.0919165" stop-color="#6CC04A"/>
<stop offset="0.2864" stop-color="#66B848"/>
<stop offset="0.5968" stop-color="#54A044"/>
<stop offset="0.8624" stop-color="#41873F"/>
</linearGradient>
<linearGradient id="paint3_linear" x1="38.8746" y1="52.8912" x2="71.9009" y2="52.8912" gradientUnits="userSpaceOnUse">
<stop offset="0.0919165" stop-color="#6CC04A"/>
<stop offset="0.2864" stop-color="#66B848"/>
<stop offset="0.5968" stop-color="#54A044"/>
<stop offset="0.8624" stop-color="#41873F"/>
</linearGradient>
<linearGradient id="paint4_linear" x1="76.6842" y1="26.5983" x2="68.317" y2="70.4417" gradientUnits="userSpaceOnUse">
<stop stop-color="#41873F"/>
<stop offset="0.3288" stop-color="#418B3D"/>
<stop offset="0.6352" stop-color="#419637"/>
<stop offset="0.9319" stop-color="#3FA92D"/>
<stop offset="1" stop-color="#3FAE2A"/>
</linearGradient>
</defs>
</svg>

<svg xmlns="http://www.w3.org/2000/svg" xmlns:xlink="http://www.w3.org/1999/xlink" width="150" height="92" fill="none" xmlns:v="https://vecta.io/nano"><path d="M74.186 91.868c-.499 0-.997-.147-1.437-.381l-4.517-2.669c-.675-.381-.352-.499-.147-.587.909-.293 1.085-.381 2.024-.909.088-.059.235-.029.352.029l3.461 2.083a.5.5 0 0 0 .411 0l13.523-7.832c.147-.059.205-.205.205-.381V65.584c0-.176-.059-.293-.205-.381L74.333 57.4a.5.5 0 0 0-.411 0l-13.494 7.832c-.147.059-.205.235-.205.381v15.635c0 .147.059.293.205.381l3.696 2.141c1.995 1.027 3.256-.176 3.256-1.349v-15.43a.42.42 0 0 1 .411-.411h1.731a.42.42 0 0 1 .411.411v15.43c0 2.669-1.467 4.224-3.99 4.224-.792 0-1.379 0-3.109-.851l-3.55-2.024c-.88-.499-1.437-1.467-1.437-2.464V65.672c0-1.027.528-1.965 1.437-2.464l13.523-7.832c.851-.469 1.995-.469 2.846 0l13.523 7.832c.88.499 1.437 1.467 1.437 2.464v15.635c0 1.027-.528 1.965-1.437 2.464l-13.523 7.832c-.499.147-.997.264-1.467.264zm4.165-10.736c-5.925 0-7.157-2.699-7.157-5.016a.42.42 0 0 1 .411-.411h1.76c.205 0 .381.147.381.352.264 1.789 1.056 2.669 4.635 2.669 2.845 0 4.077-.645 4.077-2.171 0-.88-.352-1.525-4.782-1.965-3.696-.381-6.013-1.173-6.013-4.136 0-2.757 2.317-4.371 6.16-4.371 4.341 0 6.483 1.496 6.747 4.752 0 .088-.029.205-.088.293-.059.059-.176.147-.264.147h-1.76c-.176 0-.352-.147-.381-.293-.411-1.877-1.467-2.464-4.224-2.464-3.109 0-3.491 1.085-3.491 1.907 0 .997.44 1.291 4.635 1.819 4.165.528 6.131 1.32 6.131 4.224-.029 2.963-2.464 4.664-6.776 4.664z" fill="#539e43"/><path d="M32.209 30.735c0-.616-.352-1.173-.88-1.496l-14.374-8.272c-.235-.147-.499-.205-.792-.235h-.147c-.264 0-.528.088-.792.235L.88 29.239A1.74 1.74 0 0 0 0 30.735L.029 52.97c0 .293.176.616.44.733.264.176.616.176.851 0l8.536-4.87a1.74 1.74 0 0 0 .88-1.496V36.925c0-.616.352-1.173.88-1.496l3.637-2.112c.264-.176.587-.235.88-.235s.616.059.851.235l3.637 2.112a1.74 1.74 0 0 1 .88 1.496v10.414c0 .616.352 1.173.88 1.496l8.536 4.87a.8.8 0 0 0 .88 0c.264-.147.44-.44.44-.733l-.029-22.235zM101.291.11c-.264-.147-.616-.147-.85 0-.265.176-.441.44-.441.733v22.059c0 .205-.088.411-.293.528a.75.75 0 0 1-.616 0l-3.608-2.083c-.528-.293-1.173-.293-1.731 0L79.379 29.65a1.74 1.74 0 0 0-.88 1.496V47.72c0 .616.352 1.173.88 1.496l14.374 8.302c.528.293 1.173.293 1.731 0l14.374-8.302a1.74 1.74 0 0 0 .88-1.496V6.417a1.75 1.75 0 0 0-.88-1.525L101.291.11zm-1.32 42.183c0 .176-.059.293-.205.381l-4.928 2.846a.57.57 0 0 1-.44 0l-4.928-2.846c-.147-.059-.205-.235-.205-.381v-5.691c0-.176.059-.293.205-.381l4.928-2.845a.57.57 0 0 1 .44 0l4.928 2.845c.147.059.205.235.205.381v5.691zm49.178-5.837c.528-.293.851-.88.851-1.496v-4.019c0-.616-.352-1.173-.851-1.496l-14.285-8.272c-.529-.293-1.174-.293-1.731 0l-14.374 8.302a1.74 1.74 0 0 0-.88 1.496v16.574c0 .616.352 1.173.88 1.496l14.286 8.126c.528.293 1.173.293 1.701 0l8.654-4.811c.264-.147.44-.44.44-.733s-.176-.616-.44-.733l-14.462-8.331c-.264-.147-.44-.44-.44-.733v-5.192c0-.293.176-.616.44-.733l4.517-2.581a.8.8 0 0 1 .88 0l4.518 2.581c.264.176.44.44.44.733v4.077c0 .293.176.616.44.733a.8.8 0 0 0 .88 0l8.536-4.987z" fill="#333"/><path d="M133.778 35.693c.088-.059.235-.059.352 0l2.758 1.584c.088.059.176.176.176.293v3.197c0 .147-.059.235-.176.293l-2.758 1.584c-.088.059-.235.059-.352 0l-2.757-1.584c-.088-.059-.176-.176-.176-.293V37.6c0-.147.058-.235.176-.293l2.757-1.613z" fill="#539e43"/><path d="M56.254 21.231c-.528-.293-1.173-.293-1.731 0l-14.286 8.243c-.528.293-.851.88-.851 1.496v16.515c0 .616.352 1.173.851 1.496l14.286 8.243c.528.293 1.173.293 1.731 0l14.286-8.243c.528-.293.851-.88.851-1.496V30.97c0-.616-.352-1.173-.851-1.496l-14.286-8.243z" fill="url(#C)"/><mask id="A" mask-type="alpha" maskUnits="userSpaceOnUse" x="39" y="21" width="33" height="37"><path d="M56.254 21.231c-.528-.293-1.173-.293-1.731 0l-14.286 8.243c-.528.293-.851.88-.851 1.496v16.515c0 .616.352 1.173.851 1.496l14.286 8.243c.528.293 1.173.293 1.731 0l14.286-8.243c.528-.293.851-.88.851-1.496V30.97c0-.616-.352-1.173-.851-1.496l-14.286-8.243z" fill="#fff"/></mask><g mask="url(#A)"><path d="M70.539 29.474l-14.315-8.243c-.147-.059-.293-.147-.44-.176L39.709 48.6c.147.176.293.293.469.411l14.344 8.243a1.74 1.74 0 0 0 1.32.176l15.078-27.603c-.088-.147-.235-.235-.381-.352z" fill="url(#D)"/></g><mask id="B" mask-type="alpha" maskUnits="userSpaceOnUse" x="39" y="21" width="33" height="37"><path d="M56.254 21.231c-.528-.293-1.173-.293-1.731 0l-14.286 8.243c-.528.293-.851.88-.851 1.496v16.515c0 .616.352 1.173.851 1.496l14.286 8.243c.528.293 1.173.293 1.731 0l14.286-8.243c.528-.293.851-.88.851-1.496V30.97c0-.616-.352-1.173-.851-1.496l-14.286-8.243z" fill="#fff"/></mask><g mask="url(#B)"><path fill-rule="evenodd" d="M70.598 48.968c.411-.235.704-.645.851-1.085L55.696 21.042c-.411-.059-.851-.029-1.232.205L40.237 29.46l15.371 28.014c.205-.029.44-.088.645-.205l14.345-8.302z" fill="url(#E)"/><use xlink:href="#H" fill-rule="evenodd" fill="url(#F)"/><use xlink:href="#H" fill-rule="evenodd" fill="url(#G)"/></g><defs><linearGradient id="C" x1="61.188" y1="27.382" x2="45.545" y2="51.966" xlink:href="#I"><stop stop-color="#41873f"/><stop offset=".329" stop-color="#418b3d"/><stop offset=".635" stop-color="#419637"/><stop offset=".932" stop-color="#3fa92d"/><stop offset="1" stop-color="#3fae2a"/></linearGradient><linearGradient id="D" x1="53.211" y1="41.163" x2="92.393" y2="19.874" xlink:href="#I"><stop offset=".138" stop-color="#41873f"/><stop offset=".403" stop-color="#54a044"/><stop offset=".714" stop-color="#66b848"/><stop offset=".908" stop-color="#6cc04a"/></linearGradient><linearGradient id="E" x1="38.873" y1="39.234" x2="71.901" y2="39.234" xlink:href="#I"><stop offset=".092" stop-color="#6cc04a"/><stop offset=".286" stop-color="#66b848"/><stop offset=".597" stop-color="#54a044"/><stop offset=".862" stop-color="#41873f"/></linearGradient><linearGradient id="F" x1="38.875" y1="52.891" x2="71.901" y2="52.891" xlink:href="#I"><stop offset=".092" stop-color="#6cc04a"/><stop offset=".286" stop-color="#66b848"/><stop offset=".597" stop-color="#54a044"/><stop offset=".862" stop-color="#41873f"/></linearGradient><linearGradient id="G" x1="76.684" y1="26.598" x2="68.317" y2="70.442" xlink:href="#I"><stop stop-color="#41873f"/><stop offset=".329" stop-color="#418b3d"/><stop offset=".635" stop-color="#419637"/><stop offset=".932" stop-color="#3fa92d"/><stop offset="1" stop-color="#3fae2a"/></linearGradient><path id="H" d="M70.598 48.968l-14.315 8.243c-.205.088-.411.176-.645.205l.264.499 15.87-9.182v-.205l-.411-.675c-.059.469-.381.88-.763 1.115z"/><linearGradient id="I" gradientUnits="userSpaceOnUse"/></defs></svg>
